svgs/sharp-solid/shop.svg

<svg xmlns="http://www.w3.org/2000/svg" viewBox="0 0 640 512"><!--! Font Awesome Pro 6.6.0 by @fontawesome - https://fontawesome.com License - https://fontawesome.com/license (Commercial License) Copyright 2024 Fonticons, Inc. --><path d="M0 192l640 0 0-64L544 0 96 0 0 128l0 64zM64 384l0 128 320 0 0-128 0-160-64 0 0 160-192 0 0-160-64 0 0 160zM512 512l64 0 0-288-64 0 0 288z"/></svg>

<svg xmlns="http://www.w3.org/2000/svg" viewBox="0 0 640 512"><!--! Font Awesome Pro 6.4.0 by @fontawesome - https://fontawesome.com License - https://fontawesome.com/license (Commercial License) Copyright 2023 Fonticons, Inc. --><path d="M0 192H640V128L544 0H96L0 128v64zM64 384V512H384V384 224H320V384H128V224H64V384zM512 512h64V224H512V512z"/></svg>
